X:1
T:Title
%%score { 1 | ( 2 3 ) }
L:1/8
M:3/4
K:G
V:1 treble nm="Grand Piano"
V:2 bass 
V:3 bass 
V:1
 z2 z2[Q:1/4=100] Bc | [DB]3 [CA] [CD][CA] | [B,G]2 [B,D]2 [B,G][DF] | [CE]3 [DF] [EG][^DA] | %4
[M:2/4] [DB]4 |[M:1/4] Bd |[M:3/4] [Bd]3 [Ac] [FA][Ec] | [Ec]2 [DB]2 [DB][GB] | %8
 [FA]3 [FA] [GB][G^c] |[M:2/4] [Fd]4 |[M:4/4] e>d cD DDED |[M:3/4] d>c B[B,D] [B,D][B,D] | %12
[M:1/4] [CE][B,D] | [Ec]>[DB] |[M:4/4] A^GAB c[Fc][=GB][FA] |[M:9/8] B2 c- c d2- de>d | %16
[M:4/4] cDDD ED d>c |[M:3/4] B[B,D] [B,D][B,D] [CE][B,D] |[M:1/4] [Ec]>[B,DB] | %19
[M:4/4] [CEA][B,E^G][A,EA][EB] [Ec][Ec][EB][A,EA] |[M:7/8] [B,DG]2 [A,DF]2 [B,DG]3 |] %21
V:2
 z2 z2 DE | z D, D,D, D,E, | z G, G,G, G,G, | z C, C,C, C,C, |[M:2/4] G,,G, G,2 | %5
[M:1/4][K:treble] GB |[M:3/4][K:bass] z D, D,D, D,D, | z G, G,G, G,G, | z A, A,A, A,A, | %9
[M:2/4] D,A, A,2 |[M:4/4][K:treble] c>B A[K:bass][D,F,C] [D,F,C][D,F,C][D,F,C][D,F,C] | %11
[M:3/4][K:treble] B>A G[K:bass][G,,G,] [G,,G,][G,,G,] |[M:1/4] [G,,G,][G,,G,] | [G,,G,]>[G,,G,] | %14
[M:4/4] [D,F,D][D,=F,D][D,^F,D][D,G,D] [D,A,D][D,A,][D,D][D,D] | %15
[M:9/8][K:treble] [G,DG]2 [A,DF]- [A,DF] [B,DG]2- [B,DG]c>B | %16
[M:4/4] A[K:bass][D,F,C][D,F,C][D,F,C] [D,F,C][D,F,C][K:treble] B>A | %17
[M:3/4] G[K:bass][G,,G,] [G,,G,][G,,G,] [G,,G,][G,,G,] |[M:1/4] [G,,G,]>G,, | %19
[M:4/4] C,D,C,[B,,^G,] [A,,A,][A,,A,][B,,G,]C, |[M:7/8] D,2 D,2 G,,3 |] %21
V:3
 x6 | D,,6 | G,,6 | C,,6 |[M:2/4] x4 |[M:1/4][K:treble] x2 |[M:3/4][K:bass] D,,6 | G,,6 | A,,6 | %9
[M:2/4] x4 |[M:4/4][K:treble] x3[K:bass] x5 |[M:3/4][K:treble] x3[K:bass] x3 |[M:1/4] x2 | x2 | %14
[M:4/4] x8 |[M:9/8][K:treble] x9 |[M:4/4] x[K:bass] x5[K:treble] x2 |[M:3/4] x[K:bass] x5 | %18
[M:1/4] x2 |[M:4/4] x8 |[M:7/8] x7 |] %21

